X:1
T:Ballade No 2
T:Ballade No 2
T:from Ballades Op. 10
T:Johannes Brahms (1833-1897) 
C:Johannes Brahms (1833-1897)
%%score { ( 1 3 4 ) | ( 2 5 ) }
L:1/8
Q:1/4=92
M:4/4
K:D
V:1 treble nm="Grand Piano" snm="Pno."
V:3 treble 
V:4 treble 
V:2 bass 
V:5 bass 
V:1
"^Andante"!p!"^espressivo e dolce" ([F,F]2 [A,A]2 [Ff]2 [A,A]2 | [F,F]2 [A,A]2 [Ff]3) (A | %2
 !arpeggio![A,Fd]2 !arpeggio![A,Fc]2 B2 [FA][EG] | [DF]3 [EG]/[FA]/ [CE]3 [DF]/[EG]/) | %4
!<(! ([B,DF]2 [A,CEA]2!<)!!mp!!>(! [G,DGB]2 [A,CEA]2!>)! | %5
!p!!<(! [B,DF]2 [A,CEA]2!<)!!mp!!>(! [G,DGB]2 [A,CEA]2)!>)! | %6
!p! !arpeggio![F,DFd]2 [EFA]2 [DGB]2 [A,D=c]2 | !arpeggio![B,GBg]2 [EGB^c]2 [DGBd]2 [CGBe]2 | %8
 [FA]8 || ([Fd]2 [Ec][DB] [CF]2 [B,D]2 |!<(! [CF][DB]!<)!!mp! !arpeggio![EBeg]2 [F^Acf]4) | %11
 ([^DFB^d]2 [Ec][DB] [CF]2 [B,D]2 | [CF][^DB] !arpeggio![EBe^g]2 [F^Acf]4) | %13
 [=DFB=d]3 [DFBd] ([D=GBd]2 .[DBe].[DB=f]) | ([DB=f]4 [E=ce]4) | %15
 [EG=ce]3 [EGce] ([EA^ce]2 .[Ec^f].[Ecg]) | ([Ecg]4 [Fdf]3) A | [A,Fd]2 [EFA]2 [DFB]2 [A,F=c]2 | %18
 !arpeggio![B,GBg]2 [EGB^c]2 [DGBd]2 [CGBe]2 | !arpeggio![DFAdfd']2 [=cefa]2 [Bdfb]2 [Adf=c']2 | %20
 !arpeggio![Bgbg']2 [egb^c']2 [dgbd']2 [cgbe']2 |"_m.s." !arpeggio![GBcegbc'e']8 | %22
!>(! !arpeggio![xdfad']4!>)! || %23
[Q:1/4=184]"^Allegro non tropp (doppio movimento)"!mf! !>!.F,.F,.F,.F, | %24
[I:staff +1] !>![D,B,]4 !>!.[G,B,].[A,C].[A,C].[B,D] | !>![^A,C]4 !>!.F,.F,.F,.F, | %26
 !>![D,B,]4 !>!.[F,C].[B,^E].[B,^E].[^A,F] |[I:staff -1] !>![^A,F]4 !>!.[F,F].[F,F].[F,F].[F,F] | %28
!f! !>![B,DB]4 !>!.[B,GB].[CAc].[CAc].[DBd] | !>![C^Ac]4 .[F,F].[F,F].[F,F].[F,F] | %30
 !>![B,DB]4 .[CFc].[^EB^e].[EBe].[F^Af] | !>![F^Af]4 .[F,F].[F,F].[F,F].[F,F] || %32
 !>![B,^DB]4 .[B,DF].[B,EG].[B,EG].[B,FA] | !>![B,FA]4 .[B,=FG].[B,FG].[B,FG].[B,FG] | %34
 [=CE=c]4 .[=CEG].[C=FA].[CFA].[CG_B] | [=CG_B]4 [A,A]4- | %36
!f! [A,A]4!<(! (3(.[CA^c]2 .[B,B]2 .A2!<)! |!f! (3:2:2^G4 F2) CCCC | %38
 D4!<(! (3(.[A,DA]2 .[G,G]2 .[F,F]2)!<)! | %39
!f! !>![E,_B,E]4"_cresc."!<(! (3(.[Ada]2 .[Gg]2 .[Ff]2)!<)! | %40
!f! (3:2:2[E_Be]4 [Dd]2!<(! (3(.[A,DA]2 .[G,G]2 .[F,F]2)!<)! | %41
 [E,^A,E]4!<(! .[G=B].[GB].[GB].[GB]!<)! | [cefc']2!ff! z2 !>!.[Ff].[Ff] z2 | %43
 !>![B,DB]4 .[CAc].[DBd].[DBd].[Ece] | !>![C^Ac]4 !>!.[Bb].[Bb] z2 | %45
 !>![EGe]4 .[Fdf].[Geg].[Geg].[Afa] | %46
 !>![F^df]4!ff!{/B} (3!wedge!=c'2{/B} !wedge!b2{/B} !wedge!a2 | %47
{/B} (3!wedge!g2{/B} !wedge!f2{/B} !wedge!e2{/=c} (3!wedge!e'2{/c} !wedge!d'2{/c} !wedge!=c'2 | %48
{/=c} (3!wedge!b2{/c} !wedge!a2{/c} !wedge!g2{/d} !wedge!f2 !wedge![F^A^c]2 | %49
 !wedge![FBd]2 !wedge![CF^A]2 !wedge![DFB]2 !wedge![^A,CF]2 | %50
 !wedge![B,DF]2[I:staff +1] !wedge![F,^A,C]2 !wedge![F,B,D]2 !wedge![C,F,A,]2 || %51
[K:B][M:6/4][I:staff -1][K:bass][Q:1/4=276]"^Molto staccato e leggiero"!p!{/D,} .F2{/E,} .E2{/F,} .D2{/G,} .C2{/=A,} .^B,2{/G,} .C2 | %52
{/E,} .E2{/F,} .D2{/G,} .C2{/=G,} .B,2{/F,} .A,2{/A,} .C2 | %53
{/F,} .=A2{/G,} .G2{/=A,} .F2{/B,} .E2{/=C} .D2{/B,} .E2 | %54
{/E,} .G2{/G,} .E2{/B,} .C2{/D,} .B,2{/E,} .C2{/C,} .A,2 | %55
{/D,} .F2{/E,} .E2{/F,} .D2{/G,} .C2{/=A,} .^B,2{/G,} .C2 | %56
{/E,} .E2{/F,} .D2{/G,} .C2{/=G,} .B,2{/F,} .A,2{/A,} .C2 | %57
{/F,} .=A2{/G,} .G2{/=A,} .F2{/B,} .E2{/=C} .D2{/B,} .E2 | %58
{/E,} .G2{/G,} .E2{/B,} .C2{/D,} .B,2{/E,} .C2{/C,} .A,2 | %59
[K:treble]{/=A,} .C2{/B,} .^E2{/C} .F2{/=D} .G2{/C} .F2{/D} .G2 | %60
{/=A,} .C2{/B,} .^E2{/C} .F2{/=D} .G2{/C} .F2{/D} .G2 | %61
{/C} .=A2{/=D} .B2{/E} .c2{/A} .=d2{/=G} .c2{/A} .d2 | %62
{/F} .=d2{/=G} .e2{/=A} .f2{/d} .=g2{/c} .f2{/d} .g2 | %63
{/=d} .^g2{/c} .f2{/B} .^e2{/=A} .=d2{/G} .c2{/F} .B2 | %64
{/^E} .=A2{/=E} .G2{/=D} .F2{/C} .^E2{/B,} .=D2{/=A,} .C2 | %65
[K:bass]!p!{/=G,} .C2{/F,} .B,2{/E,} .^A,2{/=D,} .=G,2{/C,} .F,2{/B,,} .E,2 | %66
{/B,,} .=D,2{/^A,,} .C,2{/B,,} .D,2{/A,,} .C,2{/B,,} .D,2{/A,,} .C,2 | %67
!>(!{/B,,} .=D,2{/^A,,} .C,2{/B,,} .D,2{/A,,} .C,2{/B,,} .D,2{/A,,} .C,2!>)! | %68
!pp! ([D,F]2 [E,E]2 [F,D]2 [G,C]2 [=A,^B,]2 [G,C]2) | %69
 ([E,E]2 [F,D]2 [G,C]2 [=G,B,]2 [F,A,]2 [A,C]2) | (=A4 G4!mp!!>(! F4!>)! |!p!!>(! E4 D4 C4)!>)! || %72
[M:4/4][Q:1/2=92]!pp! ([E,=G,B,]8 | [C,F,^A,]8) | ([E,=G,B,]8 | [C,F,^A,]8) | ([=D,F,-=A,-]8 | %77
 [^B,,F,A,]8) | [C,^E,G,]8- | [C,E,G,]4!p! !>!.F,.F,.F,.F, || %80
[K:D] !>![D,B,]4 !>!.[G,B,].[A,C].[A,C].[B,D] | !>![^A,C]4 !>!.F,.F,.F,.F, | %82
 !>![D,B,]4 !>!.[F,C].[B,^E].[B,^E].[^A,F] | !>![^A,F]4[K:treble] .[F,F].[F,F].[F,F].[F,F] | %84
!f! [B,^DB]4 .[C^Ac].[DB^d].[DBd].[Ece] | [^DB^d]4 [C^Ac][CAc][CAc][CAc] | %86
 !>![E^Ge]4 .[F^df].[Ge^g].[Geg]!>![^Af^a]- | [Afa]3 !>![^Ge^g]- [Geg]3 (!>![F^df]- | %88
 [Fdf]3 [^DB^d] [C^Ac]) .F.F.F | !>![B,^DB]4 .[B,DF].[B,EG].[B,EG].[B,FA] | %90
 !>![B,FA]4 .[B,=FG].[B,FG].[B,FG].[B,FG] | [=CE=c]4 .[=CEG].[C=FA].[CFA].[CG_B] | %92
 [=CG_B]4!<(! [A,A]4-!<)! |!f! [A,A]4!<(! (3(.[CA^c]2 .[B,B]2 .A2!<)! |!f! (3:2:2^G4 F2) CCCC | %95
 D4!<(! (3(.[A,DA]2 .[G,G]2 .[F,F]2)!<)! | %96
!f! !>![E,_B,E]4"_cresc."!<(! (3(.[Ada]2 .[Gg]2 .[Ff]2)!<)! | %97
!f! (3:2:2[E_Be]4 [Dd]2!<(! (3(.[A,DA]2 .[G,G]2 .[F,F]2)!<)! | %98
 [E,^A,E]4!<(! .[G=B].[GB].[GB].[GB]!<)! | [cefc']2!ff! z2 !>!.[Ff].[Ff] z2 | %100
 !>![B,DB]4 .[CAc].[DBd].[DBd].[Ece] | !>![C^Ac]4 !>!.[Bb].[Bb] z2 | %102
 !>![EGe]4 .[Fdf].[Geg].[Geg].[Afa] | !>![F^df]4{/B} (3!wedge!=c'2{/B} !wedge!b2{/B} !wedge!a2 | %104
{/B} (3!wedge!g2{/B} !wedge!f2{/B} !wedge!e2{/=c} (3!wedge!e'2{/c} !wedge!d'2{/c} !wedge!=c'2 | %105
{/=c} (3!wedge!b2{/c} !wedge!a2{/c} !wedge!g2{/d} !wedge!f2 !wedge![F^A^c]2 | %106
 !wedge![FBd]2 !wedge![CF^A]2 !wedge![DFB]2 !wedge![^A,CF]2 | %107
 !wedge![B,DF]2[I:staff +1] !wedge![F,^A,C]2 !wedge![F,B,D]2 !wedge![C,F,A,]2 | %108
[I:staff -1][K:bass]!p! ([E,G,B,]8 | [C,F,^A,]8) |!>(! ([E,G,-B,]8 | [C,G,_B,]8)!>)! | %112
!pp! [G,_B,D]8 | [E,A,C]8 |"_dim." [G,_B,-D-]8 |!pp! (([^F,-_B,D]8 | %116
"^poco rit."[Q:1/2=60] [F,^A,CE]8-)) | [F,A,CE]8 || %118
[K:B][K:treble][Q:1/4=92]"^Tempo I\nAndante\n"!p!"^espress. e dolce"[I:staff +1] ([D,D]2 [F,F]2[I:staff -1] [Dd]2 [F,F]2 | %119
[I:staff +1] [D,D]2 [F,F]2[I:staff -1] [Dd]3) (F | %120
 !arpeggio![F,DB]2 !arpeggio![F,DA]2 G2 [DF][CE] | [B,D]3 [CE]/[DF]/) ([A,C]3 [B,D]/[CE]/ | %122
!pp!!<(! [G,B,D]2 [F,A,CF]2!<)!!p!!>(! [E,B,EG]2 [F,A,CF]2)!>)! | %123
!pp!!<(! ([G,B,D]2 [F,A,CF]2!<)!!p!!>(! [E,B,EG]2 [F,A,CF]2)!>)! | %124
!pp! (!arpeggio![D,B,DB]2 [CDF]2 [B,EG]2 [F,B,=A]2) | %125
 !arpeggio![G,EGe]2 [CEG^A]2 [B,EGB]2 [^A,EGc]2 | [DF]8 ||[K:D]!p! ([DFd]2 [Ec][DB] [CF]2 [B,D]2 | %128
 [CF][DB] !arpeggio![EBeg]2 [F^Acf]4) | ([^DFB^d]2 [Ec][DB] [CF]2 [B,D]2 | %130
 [CF][^DB] !arpeggio![EBe^g]2 [F^Acf]4) | [=DFB=d]3 [DFBd] ([D=GBd]2 .[DBe].[DB=f]) | %132
 ([DB=f]4 [E=ce]4) | [EG=ce]3 [EGce] ([EA^ce]2 .[Ec^f].[Ecg]) | ([Ecg]4 [Fdf]3) A | %135
 [A,Fd]2 [EFA]2 [DFB]2 [A,F=c]2 | !arpeggio![B,GBg]2 [EGB^c]2 [DGBd]2 [CGBe]2 | %137
 !arpeggio![DFAdfd']2 [=cefa]2 [Bdfb]2 [Adf=c']2 | !arpeggio![Bgbg']2 [egb^c']2 [dgbd']2 [cgbe']2 | %139
!p! !arpeggio![Ada]8 |"_dolce" !arpeggio![=cda=c']8 | !arpeggio![Bgb]8 |!p! !arpeggio![_Bcg_b]8 | %143
"^sempre rit. e dim."[Q:1/4=90]!>(! !arpeggio![Adfa]8[Q:1/4=88] | %144
[Q:1/4=86] !arpeggio![DFA=cd]8[Q:1/4=84] |[Q:1/4=82] !arpeggio![D=FGB]8[Q:1/4=80] | %146
"^rit."[Q:1/4=78] !arpeggio![=CG=c]4[Q:1/4=76] !arpeggio![CGc]4 | %147
[Q:1/4=74] !arpeggio![B,GB]4[Q:1/4=72] !arpeggio![_B,EG_B]4!>)! | %148
!pp![Q:1/4=70] z [A,DFA]3[K:bass][Q:1/4=68] z [F,A,DF]3 |[Q:1/4=66] z2 !fermata![D,F,A,D]6 |] %150
V:2
 z"_legato" D,,2 A,,2 D,2 A,,- | A,, D,,2 A,,2 D,2 A,,- | A,, D,,2 A,,2 D,2 A,,- | %3
 A,, D,,2 A,,2 D,2 A,,- | A,, D,,2 A,,2 D,2 A,,- | A,, D,,2 A,,2 D,2 A,,- | %6
 A,, D,,2 A,,2 D,2 A,,- | A,, D,,2 A,,2 D,2 A,,- | A,, D,,2 A,,2 D,2 A,, || %9
 z B,,,2 F,,2 B,,2 F,,- | F,, B,,,2 F,,2 B,,2 F,,- | F,, B,,,2 F,,2 B,,2 F,,- | %12
 F,, B,,,2 F,,2 B,,2 F,,- | F,, B,,,2 F,,2 G,,,2 G,,- | G,, =C,,2 G,,2 =C,2 G,,- | %15
 G,, =C,,2 G,,2 A,,,2 A,,- | A,, D,,2 A,,2 D,2 A,,- | A,, D,,2 A,,2 D,2 A,,- | %18
 A,, D,,2 A,,2 D,2 A,,- | A,, D,,2 A,,2 D,2 A,,- | A,, D,,2 A,,2 D,2 A,,- | %21
 (A,,!ped! D,,2 A,,2 D,2 A,!ped-up! |!ped![I:staff -1] [DFA]4)!ped-up! || %23
[I:staff +1] !>!.F,,.F,,.F,,.F,, | !>![B,,,B,,]4 !>!.[G,,,G,,].[F,,,F,,].[F,,,F,,].[E,,,E,,] | %25
 !>![F,,,F,,]4 !>!.F,,.F,,.F,,.F,, | %26
 !>![B,,,B,,]4 !>!.[=A,,,=A,,].[^G,,,^G,,].[^G,,,^G,,].[F,,,F,,] | %27
 !>![F,,,F,,]4 !>!.F,,.F,,.F,,.F,, | !>![B,,,B,,]4 !>!.[G,,,G,,].[F,,,F,,].[F,,,F,,].[E,,,E,,] | %29
 !>![F,,,F,,]4 .F,,.F,,.F,,.F,, | !>![B,,,B,,]4 .[=A,,,=A,,].[^G,,,^G,,].[G,,,G,,].[F,,,F,,] | %31
 !>![F,,,F,,]4 .F,,.F,,.F,,.F,, || !>![B,,,B,,]4!ped! (!>![E,,,E,,]4!ped-up! | %33
 !>![B,,E,]2) z2 .[D,,G,,D,].[D,,G,,D,].[D,,G,,D,].[D,,G,,D,] | %34
 [=C,,G,,=C,]4!ped! ([=F,,,=F,,]4!ped-up! | [=C,=F,]2) z2 C,C,!<(!C,C,!<)! | %36
 ^C,4 .[=F,,,=F,,].[F,,,F,,].[F,,,F,,].[F,,,F,,] | [^F,,,^F,,]4 C,C,C,C, | %38
 D,4 .[F,,,F,,].[F,,,F,,].[F,,,F,,].[F,,,F,,] | !>![F,,,F,,]4 ([A,D]4 | %40
 _B,4) .[F,,,F,,].[F,,,F,,].[F,,,F,,].[F,,,F,,] | [F,,,F,,]4 !arpeggio![=B,,D,G,D]4 | %42
 !arpeggio![^A,,C,E,F,C]2 .[F,,F,].[F,,F,] z2 .[F,,,F,,].[F,,,F,,] | %43
 !>![B,,,F,,B,,]4 .[A,,,A,,].[G,,,G,,].[G,,,G,,].[E,,,E,,] | %44
 !>![F,,,F,,]2 .[B,,B,].[B,,B,] z2 .[B,,,B,,].[B,,,B,,] | %45
 !>![E,,B,,E,]4 .[D,,D,].[=C,,=C,].[C,,C,].[A,,,A,,] | %46
 [B,,,B,,]4 (3!arpeggio!!wedge!=C2 !wedge!B,2 !wedge!A,2 | %47
 (3!wedge!G,2 !wedge!F,2 !wedge!E,2 (3!wedge!E2 !wedge!D2 !wedge!=C2 | %48
 (3!wedge![=C,B,]2 !wedge![D,A,]2 !wedge![E,G,]2 !wedge!F,2 !wedge![F,,F,]2 | %49
 !wedge![B,,F,]2 !wedge![F,,F,]2 !wedge![B,,F,]2 !wedge![F,,F,]2 | %50
 !wedge![B,,F,]2 !wedge!F,,2 !wedge!B,,2 !wedge![F,,,F,,]2 ||[K:B][M:6/4] !>!B,,12- | B,,12- | %53
 B,,12- | B,,6 z6 | !>!B,,12- | B,,12- | B,,12- | B,,6 z6 | !>!C,12- | C,6 !>!=E,6- | %61
 E,6 !>!=A,,6- | A,,6 !>!=D,,6- | D,,12 |!>(! C,,,12!>)! | .=E,2 .=D,2 .C,2 .B,,2 .=A,,2 .=G,,2 | %66
 (E,,4 =F,,2- F,,2 E,,4 | ^E,,6 F,,6) | !>!B,,12- | B,,12- | B,,12- | B,,12 || %72
[M:4/4] z4 .=G,,.F,,.F,,.E,, | z8 | z4 .=G,,.F,,.F,,.E,, | z8 | z4 .=D,,.C,,.C,,.^B,,, | z8 | %78
 z4 .C,,2 z2 | z4 !>!.F,,.F,,.F,,.F,, || %80
[K:D] !>![B,,,B,,]4 !>!.[G,,,G,,].[F,,,F,,].[F,,,F,,].[E,,,E,,] | %81
 !>![F,,,F,,]4 !>!.F,,.F,,.F,,.F,, | %82
 !>![B,,,B,,]4 !>!.[=A,,,=A,,].[^G,,,^G,,].[^G,,,^G,,].[F,,,F,,] | !>![F,,,F,,]4 .F,,.F,,.F,,.F,, | %84
 [B,,,B,,]4 .[^A,,,^A,,].[^G,,,^G,,].[G,,,G,,].[E,,,E,,] | [F,,,F,,]4 !>![E,,,E,,]4- | %86
 [E,,,E,,]4 .[^D,,,^D,,].[C,,,C,,].[C,,,C,,].[B,,,,B,,,] | ([^D,,,^D,,]4 [E,,,E,,]4 | %88
 [F,,,F,,]4 [F,,F,]) .F,,.F,,.F,, | !>![B,,,B,,]4!ped! (!>![E,,,E,,]4!ped-up! | %90
 !>![B,,E,]2) z2 .[D,,G,,D,].[D,,G,,D,].[D,,G,,D,].[D,,G,,D,] | %91
 [=C,,G,,=C,]4!ped! ([=F,,,=F,,]4!ped-up! | [=C,=F,]2) z2 C,C,C,C, | %93
 ^C,4 .[=F,,,=F,,].[F,,,F,,].[F,,,F,,].[F,,,F,,] | [^F,,,^F,,]4 C,C,C,C, | %95
 D,4 .[F,,,F,,].[F,,,F,,].[F,,,F,,].[F,,,F,,] | !>![F,,,F,,]4 ([A,D]4 | %97
 _B,4) .[F,,,F,,].[F,,,F,,].[F,,,F,,].[F,,,F,,] | [F,,,F,,]4 !arpeggio![=B,,D,G,D]4 | %99
 !arpeggio![^A,,C,E,F,C]2 .[F,,F,].[F,,F,] z2 .[F,,,F,,].[F,,,F,,] | %100
 !>![B,,,F,,B,,]4 .[A,,,A,,].[G,,,G,,].[G,,,G,,].[E,,,E,,] | %101
 !>![F,,,F,,]2 .[B,,B,].[B,,B,] z2 .[B,,,B,,].[B,,,B,,] | %102
 !>![E,,B,,E,]4 .[D,,D,].[=C,,=C,].[C,,C,].[A,,,A,,] | %103
 [B,,,B,,]4 (3!arpeggio!!wedge!=C2 !wedge!B,2 !wedge!A,2 | %104
 (3!wedge!G,2 !wedge!F,2 !wedge!E,2 (3!wedge!E2 !wedge!D2 !wedge!=C2 | %105
 (3!wedge![=C,B,]2 !wedge![D,A,]2 !wedge![E,G,]2 !wedge!F,2 !wedge![F,,F,]2 | %106
 !wedge![B,,F,]2 !wedge![F,,F,]2 !wedge![B,,F,]2 !wedge![F,,F,]2 | %107
 !wedge![B,,F,]2 !wedge!F,,2 !wedge!B,,2 !wedge![F,,,F,,]2 | z4 .G,,,.F,,,.F,,,.E,,, | z8 | %110
 z4 .G,,,.F,,,.F,,,.E,,, | z8 | z4 ._B,,,.A,,,.A,,,.G,,, | z8 | z4 ._B,,,.A,,,.A,,,.G,,, | z8 | %116
 z4!ped! F,,,2 z2 | z8!ped-up! ||[K:B] z"_legato" B,,,2 F,,2 B,,2 F,,- | F,, B,,,2 F,,2 B,,2 F,,- | %120
 F,, B,,,2 F,,2 B,,2 F,,- | F,, B,,,2 F,,2 B,,2 F,,- | F,, B,,,2 F,,2 B,,2 F,,- | %123
 F,, B,,,2 F,,2 B,,2 F,,- | F,, B,,,2 F,,2 B,,2 F,,- | F,, B,,,2 F,,2 B,,2 F,,- | %126
 F,, B,,,2 F,,2 B,,2 F,, ||[K:D] z B,,,2 F,,2 B,,2 F,,- | F,, B,,,2 F,,2 B,,2 F,,- | %129
 F,, B,,,2 F,,2 B,,2 F,,- | F,, B,,,2 F,,2 B,,2 F,,- | (F,, B,,,2 F,,2 G,,,2 G,,- | %132
 G,, =C,,2 G,,2 =C,2 G,,-) | (G,, =C,,2 G,,2 A,,,2 A,,- | A,, D,,2 A,,2 D,2 A,,-) | %135
 A,, D,,2 A,,2 D,2 A,,- | A,, D,,2 A,,2 D,2 A,,- | A,, D,,2 A,,2 D,2 A,,- | %138
 A,, D,,2 A,,2 D,2 A,,- |!ped! A,,"_col. Ped." D,,2 A,,2 D,2 A,,-!ped-up! | %140
!ped! A,, D,,2 A,,2 D,2 A,,-!ped-up! |!ped! A,, D,,2 G,,2 D,2 G,,-!ped-up! | G,, D,,2 G,,2 C,2 x | %143
!ped! A,,2 =C,2 F,2 C,2!ped-up! |!ped! A,,2 =C,2 F,3 (A,,!ped-up! | %145
!ped! D,2 B,,2 G,,2 =F,,2)!ped-up! | (E,,3 ^F,,/G,,/ _E,,3 F,,/G,,/) | %147
 (D,,3 F,,/G,,/ ^C,,3 F,,/G,,/) |!ped! [D,,,A,,,]4!ped-up!!ped! [D,,,D,,]4!ped-up! | %149
!ped! !fermata!F,,2- !fermata!x6!ped-up! |] %150
V:3
 x8 | x8 | x4 D2 C2 | x8 | x8 | x8 | x8 | x8 | (E3 D) D4 || x8 | x8 | x8 | x8 | x8 | x8 | x8 | x8 | %17
 x8 | x8 | x8 | x8 | x8 | x4 || x4 | x8 | x8 | x8 | x8 | x8 | x8 | x8 | x8 || x8 | x8 | x8 | %35
 x4 =CC!<(!CC!<)! | ^C4 (3:2:2x4 A,2- | [A,C]4 A,4- | A,4 x4 | x8 | x8 | x8 | x8 | x8 | x8 | x8 | %46
 x8 | x8 | x8 | x8 | x8 ||[K:B][M:6/4][K:bass] x12 | x12 | x12 | x12 | x12 | x12 | x12 | x12 | %59
[K:treble] x12 | x12 | x12 | x12 | x12 | x12 |[K:bass] x12 | x12 | x12 | x12 | x12 | %70
 (F,2!<(! G,2 =A,2 B,2!<)! =C2 B,2) | (E,2 F,2 G,2 B,4 ^A,2) ||[M:4/4] x8 | x8 | x8 | x8 | x8 | %77
 x8 | x8 | x8 ||[K:D] x8 | x8 | x8 | x4[K:treble] x4 | x8 | x8 |[I:staff +1] !>![E,^G,B,]4 x4 | %87
 x8 | x8 | x8 | x8 | x8 | x4[I:staff -1] =CCCC | ^C4 (3:2:2x4 A,2- | [A,C]4 A,4- | A,4 x4 | x8 | %97
 x8 | x8 | x8 | x8 | x8 | x8 | x8 | x8 | x8 | x8 | x8 |[K:bass] x8 | x8 | x8 | x8 | D,2 z2 z4 | %113
 x8 | x8 | x8 | x8 | x8 ||[K:B][K:treble] x8 | x8 | x4 B,2 A,2 | x8 | x8 | x8 | x8 | x8 | %126
 (C3 B,) B,4 ||[K:D] x8 | x8 | x8 | x8 | x8 | x8 | x8 | x8 | x8 | x8 | x8 | x8 | %139
[I:staff +1] (!>!F,2[I:staff -1] A,2 F2 A,2 |[I:staff +1] F,2[I:staff -1] A,2 F3)[I:staff +1] (A, | %141
 D2"_dim."[I:staff -1] B,2 G,2 F,2) |[I:staff +1] (E,3"_m.d." F,/G,/ E,3 F,/G,/) | x8 | x8 | x8 | %146
 x8 | x8 | x4[I:staff -1][K:bass] x4 | x8 |] %150
V:4
 x8 | x8 | x4 AG x2 | x8 | x8 | x8 | x8 | x8 | x8 || x8 | x8 | x8 | x8 | x8 | x8 | x8 | x8 | x8 | %18
 x8 | x8 | x8 | x8 | x4 || x4 | x8 | x8 | x8 | x8 | x8 | x8 | x8 | x8 || x8 | x8 | x8 | x8 | x8 | %37
 x8 | x8 | x8 | x8 | x8 | x8 | x8 | x8 | x8 | x8 | x8 | x8 | x8 | x8 ||[K:B][M:6/4][K:bass] x12 | %52
 x12 | x12 | x12 | x12 | x12 | x12 | x12 |[K:treble] x12 | x12 | x12 | x12 | x12 | x12 | %65
[K:bass] x12 | x12 | x12 | x12 | x12 | x12 | x12 ||[M:4/4] x8 | x8 | x8 | x8 | x8 | x8 | x8 | x8 || %80
[K:D] x8 | x8 | x8 | x4[K:treble] x4 | x8 | x8 | x8 | x8 | x8 | x8 | x8 | x8 | x8 | x8 | x8 | x8 | %96
 x8 | x8 | x8 | x8 | x8 | x8 | x8 | x8 | x8 | x8 | x8 | x8 |[K:bass] x8 | x8 | x8 | x8 | x8 | x8 | %114
 x8 | x8 | x8 | x8 ||[K:B][K:treble] x8 | x8 | x4 FE x2 | x8 | x8 | x8 | x8 | x8 | x8 ||[K:D] x8 | %128
 x8 | x8 | x8 | x8 | x8 | x8 | x8 | x8 | x8 | x8 | x8 | x8 | x8 | x8 | x8 | x8 | x8 | x8 | x8 | %147
 x8 | x4[K:bass] x4 | x8 |] %150
V:5
 x8 | x8 | x4 !arpeggio!A,2- x2 | A,6 x2 | x8 | x8 | x8 | x8 | x8 || x8 | x8 | x8 | x8 | x8 | x8 | %15
 x8 | x8 | x8 | x8 | x8 | x8 | x8 | x4 || x4 | x8 | x8 | x8 | x8 | x8 | x8 | x8 | x8 || x8 | x8 | %34
 x8 | x4 [=F,,=F,]4- | [F,,F,]4 x4 | x4 [F,,F,]4- | [F,,F,]4 x4 | x4 F,F,F,F, | F,4 x4 | x8 | x8 | %43
 x8 | x8 | x8 | x4 B,,4 | B,,4 !arpeggio!=C,4 | x8 | x8 | x8 || %51
[K:B][M:6/4] .B,,,2 .C,,2 .D,,2 .E,,2 .F,,2 .E,,2 | .C,,2 .D,,2 .E,,2 .^E,,2 .F,,2 .=E,,2 | %53
 .D,,2 .E,,2 .F,,2 .G,,2 .=A,,2 .G,,2 | .C,,2 .E,,2 .G,,2 .F,,2 .F,,,2 .F,,2 | %55
 .B,,,2 .C,,2 .D,,2 .E,,2 .F,,2 .E,,2 | .C,,2 .D,,2 .E,,2 .^E,,2 .F,,2 .=E,,2 | %57
 .D,,2 .E,,2 .F,,2 .G,,2 .=A,,2 .G,,2 | .C,,2 .E,,2 .G,,2 .F,,2 .F,,,2 .F,,2 | %59
 .F,,2 .G,,2 .=A,,2 .B,,2 .A,,2 .B,,2 | .F,,2 .G,,2 .=A,,2 .[=E,,B,,]2 .A,,2 .B,,2 | %61
 .=A,,2 .^G,,2 .=G,,2 .F,,2 .E,,2 .F,,2 | .=D,,2 .C,,2 .=C,,2 .B,,,2 .=A,,,2 .B,,,2 | %63
 .B,,,2 .=A,,,2 .G,,,2 .F,,,2 .=E,,,2 .=D,,,2 | x12 | !>!F,,12 | x12 | x12 | %68
 (B,,,2 C,,2 D,,2 E,,2 F,,2 E,,2) | (C,,2 D,,2 E,,2 ^E,,2 F,,2 =E,,2) | %70
 (D,,2 E,,2 F,,2 G,,2 =A,,2 G,,2) | (C,,2 D,,2 E,,2 ^E,,2 G,,2 F,,2) ||[M:4/4] x8 | x8 | x8 | x8 | %76
 x8 | x8 | x8 | x8 ||[K:D] x8 | x8 | x8 | x8 | x8 | x8 | x8 | x8 | x8 | x8 | x8 | x8 | %92
 x4 [=F,,=F,]4- | [F,,F,]4 x4 | x4 [F,,F,]4- | [F,,F,]4 x4 | x4 F,F,F,F, | F,4 x4 | x8 | x8 | x8 | %101
 x8 | x8 | x4 B,,4 | B,,4 !arpeggio!=C,4 | x8 | x8 | x8 | x8 | x8 | x8 | x8 | x8 | x8 | x8 | x8 | %116
 x8 | x4 x4 ||[K:B] x8 | x8 | x4 !arpeggio!F,2- x2 | F,6 z2 | x8 | x8 | x8 | x8 | x8 ||[K:D] x8 | %128
 x8 | x8 | x8 | x8 | x8 | x8 | x8 | x8 | x8 | x8 | x8 | x8 | x8 | x8 | x7 G,,- | %143
 G,, D,,3- D,, D,,3- | D,, D,,3- D,, D,,3- | D,, D,,3- D,, D,,3- | D,, D,,3- D,, D,,3 | %147
 z D,,,3- D,,, D,,,3 | x8 | (D,,,2 !fermata!D,,6) |] %150

